assets/Heavy dollar sign/Flat/heavy_dollar_sign_flat.svg

<svg width="32" height="32" viewBox="0 0 32 32" fill="none" xmlns="http://www.w3.org/2000/svg">
<path d="M22.7875 20.56C22.7475 17.96 20.8775 14.1 15.8975 14.1C13.0475 14.1 12.6575 12.36 12.6275 11.71C12.6575 10.9 13.0275 9.02 15.8575 9.02C18.7975 9.02 19.1375 11.09 19.1675 11.73C19.1975 12.72 20.0475 13.57 21.0175 13.48C22.0175 13.46 22.8075 12.63 22.7775 11.63C22.7275 9.46 21.2875 6.39 17.6775 5.6L17.7075 3.83C17.7175 2.83 16.9175 2.01 15.9175 2C15.9075 2 15.9075 2 15.8975 2C14.9075 2 14.0975 2.8 14.0875 3.79L14.0675 5.59C10.4275 6.36 9.0275 9.47 9.0075 11.7C9.0475 14.12 10.9175 17.72 15.8975 17.72C18.7075 17.72 19.1075 19.76 19.1675 20.52C19.0875 21.01 18.6275 22.8 15.8975 22.8C13.1275 22.8 12.6875 20.94 12.6175 20.39C12.5275 19.39 11.6675 18.67 10.6475 18.75C9.6475 18.84 8.9175 19.72 9.0075 20.71C9.1575 22.42 10.4475 25.46 14.0775 26.23V28.3C14.0775 29.3 14.8875 30.11 15.8875 30.11C16.8875 30.11 17.7075 29.3 17.7075 28.3V26.23C21.3375 25.47 22.6275 22.45 22.7775 20.75L22.7875 20.65V20.56Z" fill="#00D26A"/>
</svg>

<svg xmlns="http://www.w3.org/2000/svg" width="32" height="32" fill="none"><path fill="#00D26A" d="M22.788 20.56c-.04-2.6-1.91-6.46-6.89-6.46-2.85 0-3.24-1.74-3.27-2.39.03-.81.4-2.69 3.23-2.69 2.94 0 3.28 2.07 3.31 2.71.03.99.88 1.84 1.85 1.75 1-.02 1.79-.85 1.76-1.85-.05-2.17-1.49-5.24-5.1-6.03l.03-1.77c.01-1-.79-1.82-1.79-1.83h-.02c-.99 0-1.8.8-1.81 1.79l-.02 1.8c-3.64.77-5.04 3.88-5.06 6.11.04 2.42 1.91 6.02 6.89 6.02 2.81 0 3.21 2.04 3.27 2.8-.08.49-.54 2.28-3.27 2.28-2.77 0-3.21-1.86-3.28-2.41-.09-1-.95-1.72-1.97-1.64-1 .09-1.73.97-1.64 1.96.15 1.71 1.44 4.75 5.07 5.52v2.07c0 1 .81 1.81 1.81 1.81s1.82-.81 1.82-1.81v-2.07a6.284 6.284 0 0 0 5.07-5.48l.01-.1v-.09Z"/></svg>
